packages/core/src/svgs/tokens/branded/HAI.svg

<svg width="24" height="24" viewBox="0 0 24 24" fill="none" xmlns="http://www.w3.org/2000/svg">
<path d="M2 2.71426H3.42857V11.2857H4.14285V2.71426H5.57143V11.2857H20.5715V10.5714H6.28572V2.71426H7.71428V9.14291H20.5715V8.42854H8.42857V2.71426H9.85717V6.99997H14.1428V2.71426H15.5715V6.99997H16.2857V2.71426H17.7143V6.99997H18.4285V2.71426H19.8572V6.99997H20.5715V2.71426H22V21.2857H20.5715V12.7142H19.8572V21.2857H18.4285V12.7142H3.42857V13.4286H17.7143V21.2857H16.2857V14.8571H3.42857V15.5714H15.5715V21.2857H14.1428V16.9999H9.85717V21.2857H8.42857V16.9999H7.71428V21.2857H6.28572V16.9999H5.57143V21.2857H4.14285V16.9999H3.42857V21.2857H2V2.71426Z" fill="#45E2BA"/>
</svg>

<svg xmlns="http://www.w3.org/2000/svg" width="24" height="24" fill="none" viewBox="0 0 24 24">
    <path fill="#45E2BA" d="M2 2.714h1.429v8.572h.714V2.714H5.57v8.572h15v-.715H6.287V2.714h1.428v6.429h12.858v-.714H8.429V2.714h1.428V7h4.286V2.714h1.428V7h.715V2.714h1.428V7h.715V2.714h1.428V7h.715V2.714H22v18.572h-1.428v-8.572h-.715v8.572H18.43v-8.572h-15v.715h14.285v7.857h-1.428v-6.429H3.429v.714h12.143v5.715h-1.43V17H9.858v4.286H8.43V17h-.715v4.286H6.286V17H5.57v4.286H4.143V17h-.714v4.286H2z"/>
</svg>
